X:1
T:James Gibb editions
T:Regina coeli jubila - Praetorius
T:#
%%score [ 1 2 3 ]
L:1/8
Q:1/4=80
M:6/8
K:Ab
V:1 treble nm="Soprano I"
V:2 treble nm="Soprano II"
V:3 treble nm="Alto I" snm="A"
V:1
"^Regina coeli jubila""^andante""^Michael Praetorius\n(1571-1621)"!pp! e | e2 e f2 e | e2 e c3 | %3
w: Re-|gi- na coe- li|ju- bi- la,|
w: ~~Quam|di- gna ter- ris|gi- gne- re,|
w: Sunt|fra- cta mor- tis|spi- cu- la,|
w: A-|cer- bi- tas so-|la- ti- um,|
 (c2 B) A2 B | c3 c2 e | e2 e f2 e |[M:6/8] e2 e c2 d | (c2 B) (A2 B) | A3- A2 c | B2 G A2 F | %10
w: Gau\- * de Ma-|ri- a! Iam|pul- sa ce- dunt|nu- bi- la, Al-|le\- * lu\- *|ja, * Lae-|ta- re o Ma-|
w: |* * Vi-|vis re- sur- get|fu- ne- re, *||||
w: |* * Je-|su ja- cet mors|sub- di- ta, *||||
w: |* * Lu-|ctus re- do- nat|gau- di- um. *||||
 G3 G2 e | e2 e f2 e | e3 c2 d | (c2 B A2 G) | A3- A2 :| %15
w: ri- a, lae-|ta- re o Ma-|ri- a, Ma-|ri\- * * *|a. *|
w: |||||
w: |||||
w: |||||
V:2
!pp! c | c2 c d2 c | B2 B A3 | (A2 G) E2 G | A3 A2 c | c2 A A2 A |[M:6/8] G2 G A2 F | %7
w: Re-|gi- na coe- li|ju- bi- la,|Gau\- * de Ma-|ri- a! Iam|pul- sa ce- dunt|nu- bi- la, Al-|
w: ~~Quam|di- gna ter- ris|gi- gne- re,||* * Vi-|vis re- sur- get|fu- ne- re, *|
w: Sunt|fra- cta mor- tis|spi- cu- la,||* * Je-|su ja- cet mors|sub- di- ta, *|
w: A-|cer- bi- tas so-|la- ti- um,||* * Lu-|ctus re- do- nat|gau- di- um. *|
 (A2 F) (E2 G) | A3- A2 E | G2 E F2 =D | E3 E2 G | A2 c B2 G | A3 A2 F | (A2 F EFD) | C3- C2 :| %15
w: le\- * lu\- *|ja, * Lae-|ta- re o Ma-|ri- a, lae-|ta- re o Ma-|ri- a, Ma-|ri\- * * * *|a. *|
w: ||||||||
w: ||||||||
w: ||||||||
V:3
!pp! A | A2 A A2 A | G2 G A3 | (A2 E) C2 E | A3 A2 A | A2 C D2 C | %6
w: Re-|gi- na coe- li|ju- bi- la,|Gau\- * de Ma-|ri- a! Iam|pul- sa ce- dunt|
w: ~~Quam|di- gna ter- ris|gi- gne- re,||* * Vi-|vis re- sur- get|
w: Sunt|fra- cta mor- tis|spi- cu- la,||* * Je-|su ja- cet mors|
w: A-|cer- bi- tas so-|la- ti- um,||* * Lu-|ctus re- do- nat|
[M:6/8]"^5. Turbata sputis lumina,\nGaude Maria!\nPhoebea vincunt fulgura,\nAlleluja. Laetare Maria.\n\n6. Manum pedumque vulnera,\nGaude Maria!\nSunt gratiarum fulmina,\nAlleluja. Laetare Maria.\n\n7. Transversa ligni robora,\nGaude Maria!\nSunt scepta regni fulgida,\nAlleluja. Laetare Maria." C2 C F2 B, | %7
w: nu- bi- la, Al-|
w: fu- ne- re, *|
w: sub- di- ta, *|
w: gau- di- um. *|
 (A,2 D) (C2 E) | A,3- A,2 A, | E2 E A,2 B, | E3 E2 C | %11
w: le\- * lu\- *|ja, * Lae-|ta- re o Ma-|ri- a, lae-|
w: ||||
w: ||||
w: ||||
"^8. Lucet arundo purpura,\nGaude Maria!\nUt fulva terrae viscera,\nAlleluja. Laetare Maria.\n\n9. Catena, clavi, lancea,\nGaude Maria!\nTriumphi sunt insignia,\nAlleluja. Laetare Maria.\n\n10. Ergo Maria plaudito,\nGaude Maria!\nClientibus succurito,\nAlleluja. Laetare Maria." C2 A, D2 E | %12
w: ta- re o Ma-|
w: |
w: |
w: |
 C3 A,2 B, | (F2 D CDB,) | A,3- A,2 :| %15
w: ri- a, Ma-|ri\- * * * *|a. *|
w: |||
w: |||
w: |||

